build/category/MaintenanceOutline.svg

<svg xmlns="http://www.w3.org/2000/svg" fill="none" viewBox="0 0 24 24" focusable="false"><path d="M0 0H24V24H0z"/><path fill="#74767B" fill-rule="evenodd" d="M21.7338 13.3846C23.2032 12.017 23.2924 9.71948 21.9335 8.24199L18.4714 4.47774C17.133 3.02254 14.8793 2.89753 13.3881 4.19579L11.9572 5.44163L10.6533 4.27933C9.14888 2.93835 6.84235 3.07038 5.5008 4.57427L2.02881 8.46642C0.686905 9.97071 0.818549 12.278 2.32284 13.6199L9.66053 20.1655C11.0716 21.4242 13.2103 21.3969 14.5887 20.1026L21.317 13.7848L21.3103 13.7788L21.7338 13.3846ZM8.78308 8.20518L10.9689 6.30213L9.78826 5.24977C8.81967 4.38639 7.33464 4.4714 6.4709 5.43966L2.99892 9.3318C2.13495 10.3003 2.21971 11.7858 3.18823 12.6498L4.72451 14.0203C6.06901 12.9844 7.99774 13.0002 9.3315 14.149L11.5598 16.0682C12.6162 16.9781 13.0459 18.3915 12.7224 19.7054C13.0773 19.6066 13.4134 19.4229 13.6989 19.1549L17.8588 15.2487L13.9151 11.3372C13.6786 11.1026 13.3031 11.0848 13.0455 11.2958L12.069 12.0957C11.0678 12.9159 9.6106 12.8546 8.6818 11.9533C7.61199 10.9151 7.65876 9.18407 8.78308 8.20518ZM11.3705 19.6792C11.7257 18.7591 11.4685 17.7053 10.7114 17.0532L8.4831 15.134C7.69007 14.4509 6.57034 14.39 5.72188 14.91L10.5259 19.1954C10.7781 19.4204 11.0665 19.5816 11.3705 19.6792ZM20.9767 9.12203C21.8516 10.0733 21.7941 11.5525 20.8481 12.433L18.7938 14.3451L14.8306 10.4142C14.1212 9.71052 12.9946 9.65698 12.2217 10.2902L11.2452 11.0901C10.7551 11.4916 10.0418 11.4616 9.58714 11.0203C9.06346 10.5122 9.08636 9.66481 9.63672 9.18564L14.2418 5.17625C15.2018 4.34038 16.6529 4.42087 17.5146 5.35778L20.9767 9.12203Z"/></svg>

<svg xmlns="http://www.w3.org/2000/svg" fill="none" viewBox="0 0 24 24" focusable="false"><path fill="#74767B" fill-rule="evenodd" d="M21.73 13.38a3.646 3.646 0 0 0 .2-5.14l-3.46-3.77a3.66 3.66 0 0 0-5.09-.28l-1.43 1.25-1.3-1.17a3.65 3.65 0 0 0-5.15.3L2.02 8.46a3.64 3.64 0 0 0 .3 5.15l7.34 6.55a3.643 3.643 0 0 0 4.92-.06l6.73-6.32v-.01zM8.78 8.2l2.18-1.9-1.18-1.06c-.97-.86-2.45-.77-3.31.19l-3.48 3.9c-.86.97-.78 2.45.19 3.31l1.54 1.38a3.66 3.66 0 0 1 4.61.12l2.22 1.92c1.06.91 1.49 2.33 1.17 3.64.35-.1.69-.28.97-.55l4.16-3.91-3.94-3.91a.66.66 0 0 0-.87-.04l-.98.8A2.544 2.544 0 0 1 8.78 8.2m2.59 11.47c.35-.92.09-1.97-.66-2.62l-2.23-1.92c-.8-.68-1.91-.74-2.76-.22l4.8 4.28c.25.23.54.39.85.48m9.6-10.55c.88.95.82 2.43-.13 3.31l-2.05 1.91-3.96-3.93c-.71-.7-1.84-.76-2.61-.12l-.98.8c-.49.4-1.2.37-1.66-.07-.52-.51-.5-1.36.05-1.84l4.61-4.01c.96-.83 2.41-.75 3.27.18z"/></svg>
